elusive/wordpress.svg

<?xml version="1.0" encoding="UTF-8" standalone="no"?>
<!-- Generator: IcoMoon.io -->

<svg
   xmlns:dc="http://purl.org/dc/elements/1.1/"
   xmlns:cc="http://creativecommons.org/ns#"
   xmlns:rdf="http://www.w3.org/1999/02/22-rdf-syntax-ns#"
   xmlns:svg="http://www.w3.org/2000/svg"
   xmlns="http://www.w3.org/2000/svg"
   xmlns:sodipodi="http://sodipodi.sourceforge.net/DTD/sodipodi-0.dtd"
   xmlns:inkscape="http://www.inkscape.org/namespaces/inkscape"
   id="svg2"
   version="1.1"
   data-tags="remove-circle, cancel, close, remove, delete"
   height="1200"
   width="1200"
   data-du=""
   viewBox="0 0 1200 1200"
   inkscape:version="0.48.4 r9939"
   sodipodi:docname="wordpress.svg">
  <defs
     id="defs32">
    <pattern
       id="pattern13199"
       width="811.3138"
       patternUnits="userSpaceOnUse"
       patternTransform="translate(-1692.9959,113.8855)"
       height="483.7205">
      <path
         id="path13201"
         filter="url(#filter3767)"
         d="M241.8603,83.1823H569.4535A158.678,158.678 0 0 1 728.1315,241.8603V241.8603A158.678,158.678 0 0 1 569.4535,400.5382H241.8603A158.678,158.678 0 0 1 83.1823,241.8603V241.8603A158.678,158.678 0 0 1 241.8603,83.1823" />
    </pattern>
    <mask
       id="mask13195"
       maskUnits="userSpaceOnUse">
      <path
         id="path13197"
         d="m -957.1864,582.2458 40.9492,-299.4407 -144.6017,-8.9576 -10.2373,67.822 -12.7966,11.5169 -8.9576,216.2627 -65.2627,-21.7542 14.0763,-270.0085 -74.2204,-6.3983 -11.5169,28.1525 -14.0763,225.2203 -42.2288,-8.9576 2.5593,-250.8136 -6.3983,0 -7.678,-70.3814 -33.2712,1.2797 -1.2796,29.4322 -7.678,17.9153 -2.5593,189.3898 -26.8729,33.2712 2.5593,88.2966 40.9492,19.1949 34.5508,-46.0678 284.0848,76.7797 49.9068,-21.7542"
         inkscape:connector-curvature="0"
         style="fill:#ffffff;stroke:#000000" />
    </mask>
    <filter
       id="filter13191"
       y="-0.26210001"
       x="-0.12899999"
       width="1.2579"
       height="1.5242"
       color-interpolation-filters="sRGB">
      <feGaussianBlur
         id="feGaussianBlur13193"
         stdDeviation="34.659" />
    </filter>
    <inkscape:path-effect
       id="path-effect13189" />
    <inkscape:path-effect
       id="path-effect21802" />
    <pattern
       id="pattern16"
       width="811.3138"
       patternUnits="userSpaceOnUse"
       patternTransform="translate(-1692.9959,113.8855)"
       height="483.7205">
      <path
         id="path18"
         filter="url(#filter3767)"
         d="M241.8603,83.1823H569.4535A158.678,158.678 0 0 1 728.1315,241.8603V241.8603A158.678,158.678 0 0 1 569.4535,400.5382H241.8603A158.678,158.678 0 0 1 83.1823,241.8603V241.8603A158.678,158.678 0 0 1 241.8603,83.1823" />
    </pattern>
    <mask
       id="mask12"
       maskUnits="userSpaceOnUse">
      <path
         id="path14"
         d="m -957.1864,582.2458 40.9492,-299.4407 -144.6017,-8.9576 -10.2373,67.822 -12.7966,11.5169 -8.9576,216.2627 -65.2627,-21.7542 14.0763,-270.0085 -74.2204,-6.3983 -11.5169,28.1525 -14.0763,225.2203 -42.2288,-8.9576 2.5593,-250.8136 -6.3983,0 -7.678,-70.3814 -33.2712,1.2797 -1.2796,29.4322 -7.678,17.9153 -2.5593,189.3898 -26.8729,33.2712 2.5593,88.2966 40.9492,19.1949 34.5508,-46.0678 284.0848,76.7797 49.9068,-21.7542"
         inkscape:connector-curvature="0"
         style="fill:#ffffff;stroke:#000000" />
    </mask>
    <filter
       id="filter8"
       y="-0.26210001"
       x="-0.12899999"
       width="1.2579"
       height="1.5242"
       color-interpolation-filters="sRGB">
      <feGaussianBlur
         id="feGaussianBlur10"
         stdDeviation="34.659" />
    </filter>
    <inkscape:path-effect
       id="path-effect6" />
  </defs>
  <sodipodi:namedview
     pagecolor="#ffffff"
     bordercolor="#666666"
     borderopacity="1"
     objecttolerance="10"
     gridtolerance="10"
     guidetolerance="10"
     inkscape:pageopacity="0"
     inkscape:pageshadow="2"
     inkscape:window-width="1535"
     inkscape:window-height="876"
     id="namedview30"
     showgrid="false"
     inkscape:zoom="0.52678571"
     inkscape:cx="593.76445"
     inkscape:cy="553.24435"
     inkscape:window-x="65"
     inkscape:window-y="24"
     inkscape:window-maximized="1"
     inkscape:current-layer="svg2" />
  <metadata
     id="metadata62">
    <rdf:RDF>
      <cc:Work
         rdf:about="">
        <dc:format>image/svg+xml</dc:format>
        <dc:type
           rdf:resource="http://purl.org/dc/dcmitype/StillImage" />
        <dc:title />
      </cc:Work>
    </rdf:RDF>
  </metadata>
  <g
     id="g23079"
     transform="matrix(0.51076562,0,0,-0.51076562,421.32091,1074.7792)" />
  <g
     id="g25109"
     transform="matrix(1.5625,0,0,1.5625,-289.69333,622.37392)" />
  <path
     style="fill:currentColor"
     inkscape:connector-curvature="0"
     d="M 599.31445,1200 C 264.24117,1193.5594 2.3428125,918.88828 0,599.31422 6.5151562,264.49078 279.72844,2.342812 599.31445,0 934.15711,6.693984 1197.6541,279.29789 1200,599.31422 1193.3813,934.40625 919.31836,1197.6539 599.31445,1200 z m 0,-1157.485781 C 288.19687,48.640781 43.307812,302.23172 41.142891,599.31422 47.194453,910.68047 302.24461,1155.3209 599.31445,1157.4856 910.6807,1151.4341 1155.3211,896.38383 1157.4858,599.31422 1151.613,287.96719 895.95445,44.675859 599.31445,42.514219 z m -144,1047.771381 153.6,-441.60005 160.45711,432.00005 c -108.10336,36.1882 -210.30328,38.3817 -314.05711,9.6 z M 337.37156,309.94289 C 281.14125,317.58633 226.45523,320.31258 172.8,318.17156 274.67742,172.52062 437.79562,90.578672 599.31422,89.142891 c 132.11062,2.500546 255.27,52.437889 345.6,134.399999 -41.89313,-3.09656 -66.97711,15.27633 -85.02867,46.62867 -26.23477,80.9393 29.20172,140.85211 60.34289,201.6 29.44406,55.50446 27.10968,118.6193 10.97133,172.8 L 854.4,906.51422 669.25734,356.57133 c 19.29164,-1.79555 38.70844,-2.37328 56.22868,-5.48578 20.73726,-4.61743 25.28648,-23.91422 10.97132,-35.65711 -4.57101,-3.65766 -9.6,-5.48578 -15.08578,-5.48578 l -111.08578,8.22867 -84.34289,0 c -23.8125,1.40601 -91.05094,-21.59696 -96.68578,9.6 -2.91164,12.01687 6.05812,21.43594 16.45711,23.31422 18.34547,2.37726 39.36445,5.07562 56.22867,6.85711 L 582.85711,574.62844 470.4,906.51422 283.88578,356.57133 c 19.73625,-1.71422 39.73383,-2.31188 57.6,-5.48578 14.62899,-1.83352 21.02813,-9.14742 19.2,-21.94289 -2.59336,-11.37774 -12.73383,-19.065 -23.31422,-19.2 z M 131.65734,394.97156 377.14312,1058.743 C 288.56625,1015.0836 218.53781,950.87906 168.68578,874.28555 77.489531,728.75367 67.896797,544.12102 131.65734,394.97133 z m 959.31426,340.8 C 1050.6691,867.38109 968.35406,976.38609 854.4,1042.2858 c 5.48578,-14.6288 14.17102,-39.3144 26.05711,-74.05713 L 1023.0858,554.05734 c 13.7142,-40.22812 23.3142,-85.02867 28.8,-134.4 1.8515,-20.19961 1.9137,-40.56468 -1.3713,-58.97132 58.44,126.04171 75.018,250.8914 40.4571,375.08578 z"
     id="path26266" />
</svg>

<?xml version="1.0" encoding="utf-8"?>
<!-- Generator: Adobe Illustrator 13.0.0, SVG Export Plug-In . SVG Version: 6.00 Build 14948)  -->
<!DOCTYPE svg PUBLIC "-//W3C//DTD SVG 1.1//EN" "http://www.w3.org/Graphics/SVG/1.1/DTD/svg11.dtd">
<svg version="1.1"
	 id="svg2" inkscape:version="0.48.4 r9939" sodipodi:docname="wordpress.svg" xmlns:dc="http://purl.org/dc/elements/1.1/" xmlns:cc="http://creativecommons.org/ns#" xmlns:rdf="http://www.w3.org/1999/02/22-rdf-syntax-ns#" xmlns:svg="http://www.w3.org/2000/svg" xmlns:sodipodi="http://sodipodi.sourceforge.net/DTD/sodipodi-0.dtd" xmlns:inkscape="http://www.inkscape.org/namespaces/inkscape"
	 xmlns="http://www.w3.org/2000/svg" xmlns:xlink="http://www.w3.org/1999/xlink" x="0px" y="0px" width="1200px" height="1200px"
	 viewBox="0 0 1200 1200" enable-background="new 0 0 1200 1200" xml:space="preserve">
<path id="path26266" inkscape:connector-curvature="0" d="M599.314,1200C264.241,1193.56,2.343,918.889,0,599.314
	C6.515,264.491,279.729,2.343,599.314,0C934.157,6.694,1197.654,279.298,1200,599.314
	C1193.381,934.406,919.318,1197.654,599.314,1200z M599.314,42.514c-311.118,6.126-556.007,259.718-558.171,556.8
	c6.051,311.366,261.102,556.007,558.171,558.171c311.366-6.052,556.007-261.102,558.172-558.171
	C1151.613,287.967,895.954,44.676,599.314,42.514L599.314,42.514z M455.314,1090.285l153.6-441.6l160.457,432
	C661.269,1116.874,559.068,1119.067,455.314,1090.285L455.314,1090.285z M337.371,309.943c-56.23,7.644-110.916,10.37-164.571,8.229
	C274.677,172.521,437.796,90.579,599.314,89.143c132.11,2.5,255.27,52.438,345.6,134.4c-41.893-3.097-66.977,15.276-85.028,46.628
	c-26.235,80.939,29.201,140.852,60.343,201.6c29.444,55.505,27.109,118.619,10.971,172.8L854.4,906.515L669.258,356.571
	c19.291-1.795,38.708-2.373,56.229-5.486c20.737-4.617,25.286-23.914,10.971-35.657c-4.57-3.657-9.6-5.485-15.086-5.485
	l-111.085,8.229h-84.343c-23.813,1.406-91.052-21.597-96.687,9.6c-2.911,12.017,6.059,21.436,16.457,23.314
	c18.346,2.377,39.365,5.076,56.229,6.857l80.914,216.686L470.4,906.515L283.886,356.571c19.736-1.714,39.733-2.312,57.6-5.486
	c14.63-1.833,21.028-9.147,19.2-21.943C358.093,317.765,347.952,310.078,337.371,309.943L337.371,309.943z M131.657,394.972
	l245.486,663.771c-88.577-43.659-158.606-107.864-208.458-184.458C77.49,728.754,67.897,544.121,131.657,394.972L131.657,394.972z
	 M1090.972,735.771c-40.303,131.609-122.617,240.614-236.571,306.515c5.485-14.629,14.171-39.314,26.057-74.058l142.629-414.171
	c13.714-40.229,23.314-85.029,28.8-134.4c1.852-20.199,1.914-40.564-1.371-58.971
	C1108.954,486.728,1125.532,611.577,1090.972,735.771L1090.972,735.771z"/>
</svg>
